X: 393
T: Hilligsburghs Strathpey
%R: strathspey
Z: 2014 John Chambers <jc:trillian.mit.edu>
B: Preston "Twenty four Country Dances for the Year 1800" p.177 #1
F: http://www.vwml.org/browse/browse-collections-dance-tune-books/browse-prestons1800# 2014-8-10
N: The 2nd strain has two endings but no initial repeat; fixed.
M: C|
L: 1/8
K: F
|:\
F>GAc d>cd>f | c>df>a g/g/gg2 |\
F>GA>c d>cd>f | c>de>g f/f/ff2 :||: c>Af>d c>AG>F |
D>CF>A G/G/GG2 |[1 c>Af>d c>AG>F | C>DF>G F/F/FF2 :|\
[2 A<cF>A B>cd>e | fdcA F/F/FF2 |]
% - - - - - - - - - - - - - - - - - - - - - - - - -
%%begintext align
%% Turn your Partner with right hand half round
%% turn the sides with left hand half round
%% turn the sides back again with right hand
%% turn Partner with left hand   lead down 2 Cu:
%% lead up to the top & cast off
%%endtext
% - - - - - - - - - - - - - - - - - - - - - - - - -

%%sep 1 1 500
%%sep 1 1 500
